X: 82
P: Longways for as many as will
M: 6/8
L: 1/8
K: C
V: 1
|:\
c2g gfe | d2e f3 | edc cde | dec dBG |\
c2g gfe | d2e f>gf | edc f2e | dBG c3 :|
|:\
V: 2 clef=bass middle=d
|:\
e3 c3 | g3 G3 | c3 e3 | f2a g3 |\
e3 c3 | g3 G3 | c3 d2c | g2G c3 :|
|:\
g3 G3 | g3 G3 | c'3 c3 | c'3 c3 |\
g3 G3 | g3 G3 | c3 d2c | g2G c3 :|

